X:1
T:Contre raison
T:Contre raison 3v
T:Tielman Susato
T:Source : Ier Livre des Chansons à 3 Parties---Anvers---T.Susato---1544. Editor : André Vierendeels (28/01/15)
C:Tielman Susato
%%score [ 1 2 3 ]
L:1/8
Q:1/4=120
M:2/2
K:F
V:1 treble nm="Superius" snm="S"
V:2 treble-8 nm="Tenor" snm="T"
V:3 bass nm="Bassus" snm="B"
V:1
 z4 G4 | G4 B4 | A2 A2 A3 F | G2 A2 B4- | B2 AG F4 | B4 B2 B2 | A4 z2 D2 | D3 E F2 G2 | %8
w: Con-|tre rai-|son vous m'es- tes|fort es- tran-|* * * ge,|et ce bien|faict en|au- * * rez|
 A2 B2 A2 G2 | c4 B2 A2- | AG G4 F2 | G4 z2 G2 | G2 B4 AG | F3 G A2 D2 | E2 F2 G2 A2 | B4 A2 F2 | %16
w: vous lou- an- *|||ge, d'ain-|si ma- * *|voir _ _ soub-|dain des- he- ri-||
 G2 A2 B2 c2- | cB B4 A2 | B4 z2 B2 | B2 B2 A2 G2 | c3 B A2 G2- | GF F4 E2 | F8 | G4 G2 G2 |: %24
w: ||té de|vo- stre'a- mour sans|l'a- * * voir|_ _ me- ri-|té,|vous faict il|
 DE FD E4 | z2 D2 D3 E | F2 G2 A2 B2 | A2 G2 c3 B | AG FE DE FG | A2 G4 F2 | G8 |1 z2 G2 G2 G2 :|2 %32
w: mal, _ _ _ _|si'a- vous _|_ ser- vir me|ren- * * *|||ge,|vous faict il|
 A2 G4 F2 || G8 |] %34
w: (ren)- * *|ge.|
V:2
 c4 c4 | e4 d2 B2 | c2 d2 f4 | e2 d3 c BA | GA Bc d4 | z2 e4 d2 | c2 d3 c BA | G2 d2 d2 e2 | %8
w: Con- tre|rai- son vous|m'es- tes fort|es- tran- * * *|* * * * ge,|et ce|bien faict, _ _ _|_ en au- rez|
 f2 d2 c3 d | e4 d2 c2- | cB BA/G/ A4 | G2 c2 c2 e2- | e2 dc B2 z d | d2 f4 ed | c2 d2 G2 d2- | %15
w: vous lou- an- *|||ge, d'ain- si ma-|* * * voir, d'ain-|si ma- * *|voir soub- dain des-|
 d2 B2 c2 d2 | e2 d3 c A2 | B2 d2 c4 |"^b""^b""^b" B2 e2 e2 e2 | d2 B2 c2 c2 | e3 d c2 B2 | %21
w: * he- ri- té|soub- dain _ _|des- he- ri-|té de vo- stre'a-|mour sans l'a- voir|me- * * ri-|
 A2 GF G4 | F2 B2 B2 A2 | Gccc GA BA |: Bc d4 c2 | d2 f3 e d2- | d2 cB A2 G2 | A2 c3 B AG | %28
w: |té, vous faict il|mal, vous faict il mal, _ _ _|_ _ _ _|* si'à _ _|_ vous _ _ ser-|vir me _ _ _|
 F2 f3 e d2 | c2 B2 A4 | G4 z2 c2 |1 c2 c2 GA BA :|2 c2 B2 A4 || G8 |] %34
w: _ ren- * *||ge, vous|faict il mal _ _ _|(ren)- * *|ge.|
V:3
 z4 C,4- | C,2 C,2 G,4 | F,6 D,2 | E,2 F,2 G,3 F, | E,4 D,4 | G,4 G,2 B,2 | F,2 D,2 G,3 A, | %7
w: Con-|* tre rai-|son vous-|m'es- tes fort es-|tran- ge,|est ce bien|faict, en au- rez|
 B,6 G,2 | F,2 G,2 z2 C,2- | C,D, E,F, G,2 A,2 | F,2 G,2 D,4 | E,2 C,2 C,4 | z2 G,2 G,2 B,2- | %13
w: vous lou-|an- ge, en|_ _ _ _ _ au-|rez vous lou-|an- * ge,|d'ain- si m'a-|
 B,2 A,G, F,2 G,2 | z2 D,2 E,2 F,2 | G,4 A,2 B,2 | G,2 D,2 G,2 F,2 | G,2 B,2 F,4 | %18
w: * * * * voir|soub- dain des-|he- ri- té|soub- dain des- he-|ri- * *|
"^b""^b" G,2 E,2 E,2 E,2 |"^b" B,2 G,2 F,2 C,2 | C,4 F,2 G,2 | D,2 F,2 C,4 | z2 B,,2 B,,2 F,2 | %23
w: té de vos- tr'a-|mour sans l'a- voir,|sans l'a- voir|me- ri- té,|vous faict- il|
 C,3 D, E,F, G,2- |: G,F, D,2 G,2 A,2 |"^#" B,3 A,/G,/ F,2 G,2 | D,2 E,2 F,2 G,2 | %27
w: mal _ _ _ _|_ _ _ si'à vous|fuir _ _ _ _|_ si'à vous ser-|
 F,2 E,D, C,2 F,2- |"^#" F,E, D,C, B,,C, D,E, | F,2 G,2 D,4 | z2 G,2 G,2 C,2 |1 %31
w: vir me _ _ ren-||* * ge,|vous faic- tes|
 C,D, E,D, E,F, (G,2 :|2 F,2) G,2 D,4 || G,8 |] %34
w: mal _ _ _ _ _ _|(ren)- * *|ge.|

